X:1
T:Mrs. MacPherson of Cluny
T:Mrs. MacPherson of Cluny
T:Joseph Lowe
C:Joseph Lowe
L:1/8
M:6/8
K:A
V:1 treble 
V:1
 e | c2 e ece | fga ecA | c2 e ecA | GAB Bcd | c2 e ece | fga ecA | Bcd efg | aec A2 :: e | %10
 a3 Ace | aga ecA | dcB dfB | bge efg | a3 Ace | aga ecA | Bcd efg | aec Ace | a3 Ace | aga ecA | %20
 dcB fdB | bge efg | a2 e ece | fga ecA | Bcd efg | aec A2 || %26

